src/22/panel/cisco-tray-quarantined.svg

<svg xmlns="http://www.w3.org/2000/svg" width="22" height="22" version="1.1">
 <defs>
  <style id="current-color-scheme" type="text/css">
   .ColorScheme-Text { color:#bebebe; } .ColorScheme-Highlight { color:#5294e2; }
  </style>
 </defs>
 <path style="fill:currentColor" class="ColorScheme-Text" d="M 11 3 C 8.009725 3 5.4180719 4.6269634 4.0449219 7.0449219 C 5.2107109 6.3828743 6.558275 6 8 6 C 8.524759 6 9.0371571 6.052885 9.5332031 6.1484375 C 9.5350031 6.1437775 9.5372625 6.1394176 9.5390625 6.1347656 C 9.6481115 5.8511848 9.7727484 5.5773222 9.9121094 5.3105469 C 9.9250094 5.2856729 9.9380319 5.2610491 9.9511719 5.2363281 C 10.078978 4.9978441 10.218628 4.7680924 10.369141 4.5449219 C 10.399021 4.5002339 10.426281 4.4541969 10.457031 4.4101562 C 10.609004 4.1942902 10.771315 3.9865308 10.943359 3.7871094 C 10.971399 3.7544164 10.996831 3.719726 11.025391 3.6875 C 11.229895 3.4579861 11.444498 3.2379308 11.673828 3.0332031 C 11.45122 3.0147621 11.227527 3 11 3 z M 14.226562 3.6777344 C 13.937176 3.8282219 13.666429 4.0069992 13.408203 4.2011719 C 13.344033 4.2491449 13.284789 4.3030693 13.222656 4.3535156 C 13.008473 4.5286484 12.802873 4.7149959 12.615234 4.9179688 C 12.585374 4.9499898 12.554551 4.9809989 12.525391 5.0136719 C 12.067874 5.5309607 11.695942 6.1253381 11.435547 6.7792969 C 13.281801 7.6556371 14.719139 9.2227543 15.455078 11.142578 C 15.799086 11.061089 16.148019 11.005859 16.5 11.005859 C 17.355336 11.005859 18.209715 11.249623 18.951172 11.730469 C 18.973506 11.488694 19 11.248001 19 11 C 19 7.7183319 17.041258 4.9142825 14.226562 3.6777344 z M 8 8 C 5.920529 8 4.0933101 9.0464652 3.0175781 10.644531 C 3.0123781 10.76324 3 10.87997 3 11 C 3 15.432 6.568 19 11 19 C 11.119372 19 11.235451 18.987552 11.353516 18.982422 L 11.355469 18.982422 C 11.843797 18.653705 12.279765 18.253775 12.650391 17.798828 C 12.186164 17.017392 11.979921 16.128992 12.029297 15.246094 C 11.928853 15.167246 11.820709 15.097845 11.724609 15.013672 C 11.721509 15.010972 11.718044 15.008559 11.714844 15.005859 C 11.453487 14.776245 11.209729 14.527297 10.980469 14.265625 C 10.949319 14.230125 10.919202 14.194255 10.888672 14.158203 C 10.678696 13.909818 10.481461 13.652077 10.302734 13.378906 C 10.289814 13.359196 10.276412 13.340142 10.263672 13.320312 C 10.082505 13.037984 9.9224207 12.740932 9.7773438 12.435547 C 9.7493937 12.376817 9.7238156 12.317332 9.6972656 12.257812 C 9.5660386 11.963138 9.4469465 11.662083 9.3515625 11.349609 C 9.3450625 11.328469 9.3363681 11.308329 9.3300781 11.287109 C 9.2346381 10.964815 9.1659991 10.631172 9.1113281 10.292969 C 9.0985081 10.213799 9.0866619 10.134642 9.0761719 10.054688 C 9.0308919 9.7090118 9 9.358483 9 9 C 9 8.694348 9.0175413 8.3940171 9.0507812 8.0976562 C 8.7092773 8.0377183 8.359197 8 8 8 z M 11.013672 8.8125 C 11.011672 8.87577 11 8.936238 11 9 C 11 9.248781 11.019648 9.4918529 11.048828 9.7324219 C 11.057728 9.8060019 11.070521 9.8784539 11.082031 9.9511719 C 11.109961 10.126892 11.144731 10.300546 11.1875 10.470703 C 11.20522 10.541383 11.221998 10.611992 11.242188 10.681641 C 11.308086 10.90838 11.383569 11.131108 11.474609 11.345703 C 11.571209 11.573403 11.683724 11.79182 11.806641 12.003906 C 11.823061 12.032326 11.840552 12.059781 11.857422 12.087891 C 11.972984 12.279917 12.098646 12.465455 12.234375 12.642578 C 12.247655 12.659958 12.259968 12.678092 12.273438 12.695312 C 12.398794 12.855241 12.537294 13.004213 12.677734 13.150391 C 12.85816 12.855522 13.06388 12.572839 13.318359 12.318359 C 13.424659 12.21206 13.546114 12.132461 13.660156 12.039062 C 13.187373 10.671935 12.24601 9.5275444 11.013672 8.8125 z M 16.449219 12 A 3.5 3.5 0 0 0 14.025391 13.025391 A 3.5 3.5 0 0 0 14.025391 17.974609 A 3.5 3.5 0 0 0 18.974609 17.974609 A 3.5 3.5 0 0 0 18.974609 13.025391 A 3.5 3.5 0 0 0 16.449219 12 z M 16.541016 13 A 2.5 2.5 0 0 1 18.267578 13.732422 A 2.5 2.5 0 0 1 18.582031 16.875 L 15.121094 13.414062 A 2.5 2.5 0 0 1 16.541016 13 z M 14.417969 14.125 L 17.878906 17.585938 A 2.5 2.5 0 0 1 14.732422 17.267578 A 2.5 2.5 0 0 1 14.417969 14.125 z"/>
</svg>

<svg xmlns="http://www.w3.org/2000/svg" width="22" height="22"><defs><style id="current-color-scheme" type="text/css"></style></defs><path d="M11 3a7.975 7.975 0 0 0-6.955 4.045 7.981 7.981 0 0 1 5.488-.897l.006-.013a7.904 7.904 0 0 1 .83-1.59c.03-.045.057-.09.088-.135.152-.216.314-.423.486-.623l.082-.1c.205-.229.42-.45.649-.654A8.134 8.134 0 0 0 11 3zm3.227.678c-.29.15-.56.329-.819.523-.064.048-.123.102-.185.153-.215.175-.42.361-.608.564l-.09.096a6.036 6.036 0 0 0-1.09 1.765 7.985 7.985 0 0 1 4.02 4.364 4.539 4.539 0 0 1 1.045-.137c.855 0 1.71.244 2.451.724.023-.241.049-.482.049-.73a7.98 7.98 0 0 0-4.773-7.322zM8 8a5.986 5.986 0 0 0-4.982 2.645C3.012 10.763 3 10.88 3 11c0 4.432 3.568 8 8 8 .12 0 .235-.012.354-.018h.001A5.977 5.977 0 0 0 12.65 17.8a4.497 4.497 0 0 1-.62-2.553c-.101-.079-.21-.148-.305-.232l-.01-.008a7.998 7.998 0 0 1-.735-.74l-.091-.108a7.955 7.955 0 0 1-.586-.78l-.04-.058a7.959 7.959 0 0 1-.486-.884l-.08-.178a7.91 7.91 0 0 1-.345-.908c-.007-.022-.016-.042-.022-.063a7.996 7.996 0 0 1-.254-1.232A8.096 8.096 0 0 1 9 9c0-.306.018-.606.05-.902A6.065 6.065 0 0 0 8 8zm3.014.813C11.012 8.876 11 8.935 11 9c0 .249.02.492.049.732.009.074.022.146.033.22.028.175.063.349.105.519.018.07.035.141.055.21.066.227.142.45.233.665.096.227.209.446.332.658l.05.084c.116.192.242.377.377.555l.04.052c.125.16.263.31.404.455.18-.294.386-.577.64-.832.107-.106.228-.186.342-.279a5.988 5.988 0 0 0-2.646-3.226zM16.449 12a3.5 3.5 0 0 0-2.424 1.025 3.5 3.5 0 0 0 0 4.95 3.5 3.5 0 0 0 4.95 0 3.5 3.5 0 0 0 0-4.95A3.5 3.5 0 0 0 16.449 12zm.092 1a2.5 2.5 0 0 1 1.727.732 2.5 2.5 0 0 1 .314 3.143l-3.46-3.46A2.5 2.5 0 0 1 16.54 13zm-2.123 1.125l3.46 3.46a2.5 2.5 0 0 1-3.146-.317 2.5 2.5 0 0 1-.314-3.143z" fill="currentColor" color="#bebebe"/></svg>
